X:1
T:Title
%%score ( 1 2 )
L:1/8
M:2/4
K:G
V:1 treble nm="Grand Piano"
V:2 treble 
V:1
 z2[Q:1/4=100] [DG]2 | z A Bc | [Gd]2 [Gd]2 | [Ge]2 [Ge]2 | [Gd]3 [DG] | z A Bc | [Gd]2 [Gd]2 | %7
 [Ge]2 [Ge]2 | [Gd]4 |[M:1/4] [DG]2 |[M:2/4] z A Bc | [Gd]2 [Gd]2 | [Ge]2 [Ge]2 | [Gd]3 [DG] | %14
 z A Bc | [Gd]2 [Gd]2 | [Ge]2 [Ge]2 | [Gd]4 | d3 c | [GB][DG] [DG][DG] | [DG]2 [GB][Ac] | %21
 [Bd]2 [Bd][GB] | [FA]4 | d3 c | [GB][DG] [DG][DG] | [DG]2 [Gc]2 | [GB][GB] [FA][FA] | [DG]4 |] %28
V:2
 x4 | G2 G2 | x4 | x4 | x4 | G2 G2 | x4 | x4 | x4 |[M:1/4] x2 |[M:2/4] G2 G2 | x4 | x4 | x4 | %14
 G2 G2 | x4 | x4 | x4 | G4 | x4 | x4 | x4 | x4 | G4 | x4 | x4 | x4 | x4 |] %28

